usr/share/icons/biglinux-icons-material-dark/22/actions/go-jump.svg

<svg xmlns="http://www.w3.org/2000/svg" viewBox="0 0 22 22">
  <defs id="defs3051">
    <style type="text/css" id="current-color-scheme">
      .ColorScheme-Text {
        color:#dedede;
      }
      </style>
  </defs>
 <path 
    style="fill:currentColor;fill-opacity:1;stroke:none" 
    d="M 5.7070312 3 L 5 3.7070312 L 11.125 9.8320312 L 12.292969 11 L 11.125 12.167969 L 5 18.292969 L 5.7070312 19 L 11.832031 12.875 L 13.707031 11 L 11.832031 9.125 L 5.7070312 3 z M 16 10 C 15.446 10 15 10.446 15 11 C 15 11.554 15.446 12 16 12 C 16.554 12 17 11.554 17 11 C 17 10.446 16.554 10 16 10 z "
    class="ColorScheme-Text"
    />  
</svg>

<svg xmlns="http://www.w3.org/2000/svg" viewBox="0 0 22 22">
<defs id="defs3051">
<style id="current-color-scheme" type="text/css">
.ColorScheme-Text{color:#dedede}
</style>
</defs>
<path d="M5.707 3 5 3.707l6.125 6.125L12.293 11l-1.168 1.168L5 18.293l.707.707 6.125-6.125L13.707 11l-1.875-1.875zM16 10c-.554 0-1 .446-1 1s.446 1 1 1 1-.446 1-1-.446-1-1-1" class="ColorScheme-Text" style="fill:currentColor;fill-opacity:1;stroke:none"/>
</svg>
